X:309
T:Reel 309
M:4/4
K:Dmaj
L:1/8
ec|A>E (3EEE cECE|DFED d2cA|GECE CECE|AGEC D2:|AB|cdcA GECE|A>d (3dcd e2ed|cedc dcAG|AFGE D2:|AB|cdec dcAB|cAGE CDEG|cdec d2Bd|eAge d2cA|cdec dced|cAGE CDEG|ceed cABG|Addc d2|
